flaticon/transport/tractor.svg

<svg xmlns="http://www.w3.org/2000/svg" width="32" height="32" viewBox="0 0 24 24">
    <path d="M 23.804688 17.199219 L 23.804688 14.730469 C 23.839844 14.636719 23.839844 14.527344 23.796875 14.425781 C 23.734375 13.824219 23.246094 13.378906 22.621094 13.378906 L 19.476562 13.378906 C 18.871094 13.378906 18.394531 13.796875 18.308594 14.371094 C 18.261719 14.476562 18.253906 14.59375 18.296875 14.691406 L 18.296875 17.15625 C 18.277344 17.207031 18.265625 17.261719 18.269531 17.3125 L 16.722656 17.3125 L 16.722656 12.589844 L 23.015625 12.589844 L 23.015625 10.621094 C 23.015625 9.453125 22.203125 8.523438 21.050781 8.308594 L 21.050781 4.328125 C 21.050781 4.09375 20.890625 3.933594 20.65625 3.933594 L 20.65625 1.96875 C 20.65625 1.808594 20.578125 1.691406 20.460938 1.613281 L 18.886719 0.828125 C 18.765625 0.746094 18.609375 0.746094 18.492188 0.828125 C 18.375 0.90625 18.296875 1.0625 18.296875 1.179688 L 18.296875 3.933594 C 18.058594 3.933594 17.902344 4.089844 17.902344 4.328125 L 17.902344 8.261719 L 16.722656 8.261719 L 16.722656 1.179688 C 16.722656 0.511719 16.210938 0 15.539062 0 L 8.460938 0 C 7.789062 0 7.277344 0.511719 7.277344 1.179688 L 7.277344 8.261719 L 6.097656 8.261719 L 6.097656 4.328125 C 6.097656 4.09375 5.941406 3.933594 5.703125 3.933594 L 5.703125 1.179688 C 5.703125 1.0625 5.625 0.90625 5.546875 0.828125 C 5.429688 0.785156 5.273438 0.746094 5.152344 0.828125 L 3.582031 1.613281 C 3.421875 1.691406 3.34375 1.808594 3.34375 1.96875 L 3.34375 3.933594 C 3.109375 3.933594 2.949219 4.089844 2.949219 4.328125 L 2.949219 8.308594 C 1.796875 8.523438 0.984375 9.453125 0.984375 10.621094 L 0.984375 12.589844 L 7.277344 12.589844 L 7.277344 17.3125 L 5.730469 17.3125 C 5.726562 17.273438 5.71875 17.234375 5.703125 17.199219 L 5.703125 14.730469 C 5.742188 14.636719 5.742188 14.527344 5.699219 14.425781 C 5.636719 13.824219 5.148438 13.378906 4.523438 13.378906 L 1.378906 13.378906 C 0.773438 13.378906 0.296875 13.796875 0.210938 14.371094 C 0.160156 14.476562 0.15625 14.59375 0.195312 14.691406 L 0.195312 17.15625 C 0.160156 17.253906 0.160156 17.355469 0.195312 17.445312 L 0.195312 19.914062 C 0.160156 20.007812 0.160156 20.109375 0.195312 20.199219 L 0.195312 22.425781 C 0.195312 23.09375 0.707031 23.605469 1.378906 23.605469 L 4.523438 23.605469 C 5.195312 23.605469 5.703125 23.09375 5.703125 22.425781 L 5.703125 20.238281 C 5.742188 20.148438 5.742188 20.050781 5.703125 19.953125 L 5.703125 19.671875 L 7.277344 19.671875 L 7.277344 21.324219 L 8.261719 23.253906 C 8.5 23.726562 8.929688 24 9.441406 24 L 14.558594 24 C 15.070312 24 15.542969 23.726562 15.738281 23.253906 L 16.722656 21.324219 L 16.722656 19.671875 L 18.296875 19.671875 L 18.296875 19.914062 C 18.257812 20.007812 18.257812 20.109375 18.296875 20.199219 L 18.296875 22.425781 C 18.296875 23.09375 18.804688 23.605469 19.476562 23.605469 L 22.621094 23.605469 C 23.292969 23.605469 23.804688 23.09375 23.804688 22.425781 L 23.804688 20.238281 C 23.839844 20.148438 23.839844 20.050781 23.804688 19.953125 L 23.804688 17.484375 C 23.839844 17.394531 23.839844 17.292969 23.804688 17.199219 Z M 21.078125 21.171875 L 19.082031 19.84375 L 19.082031 18.046875 L 20.8125 19.199219 C 20.84375 19.214844 20.878906 19.230469 20.910156 19.246094 C 20.933594 19.257812 20.960938 19.265625 20.984375 19.269531 C 20.988281 19.269531 20.992188 19.273438 20.992188 19.273438 C 21 19.273438 21.007812 19.273438 21.011719 19.277344 C 21.023438 19.277344 21.039062 19.277344 21.050781 19.277344 C 21.0625 19.277344 21.074219 19.277344 21.089844 19.277344 C 21.089844 19.273438 21.09375 19.273438 21.097656 19.273438 C 21.160156 19.265625 21.222656 19.238281 21.285156 19.238281 L 23.015625 18.085938 L 23.015625 19.882812 Z M 20.8125 16.445312 C 20.84375 16.460938 20.878906 16.476562 20.910156 16.492188 C 20.933594 16.503906 20.960938 16.511719 20.984375 16.515625 C 20.988281 16.515625 20.992188 16.519531 20.992188 16.519531 C 21 16.519531 21.007812 16.519531 21.011719 16.523438 C 21.023438 16.523438 21.039062 16.523438 21.050781 16.523438 C 21.0625 16.523438 21.074219 16.523438 21.089844 16.519531 C 21.089844 16.519531 21.09375 16.519531 21.097656 16.519531 C 21.160156 16.511719 21.222656 16.484375 21.285156 16.484375 L 23.015625 15.332031 L 23.015625 17.128906 L 21.078125 18.417969 L 19.082031 17.089844 L 19.082031 15.292969 Z M 19.476562 14.164062 L 22.621094 14.164062 C 22.796875 14.164062 22.929688 14.25 22.988281 14.394531 L 21.078125 15.664062 L 19.125 14.363281 C 19.1875 14.238281 19.3125 14.164062 19.476562 14.164062 Z M 19.082031 1.808594 L 19.867188 2.203125 L 19.867188 3.933594 L 19.082031 3.933594 Z M 18.6875 4.722656 L 20.261719 4.722656 L 20.261719 8.261719 L 18.6875 8.261719 Z M 3.738281 4.722656 L 5.3125 4.722656 L 5.3125 8.261719 L 3.738281 8.261719 Z M 4.132812 2.203125 L 4.917969 1.808594 L 4.917969 3.933594 L 4.132812 3.933594 Z M 2.980469 18.417969 L 0.984375 17.089844 L 0.984375 15.292969 L 2.714844 16.445312 C 2.746094 16.460938 2.78125 16.476562 2.8125 16.492188 C 2.835938 16.503906 2.863281 16.511719 2.886719 16.515625 C 2.890625 16.515625 2.890625 16.519531 2.894531 16.519531 C 2.902344 16.519531 2.90625 16.519531 2.914062 16.523438 C 2.925781 16.523438 2.9375 16.523438 2.949219 16.523438 C 2.964844 16.523438 2.976562 16.523438 2.992188 16.519531 C 2.992188 16.519531 2.996094 16.519531 3 16.519531 C 3.0625 16.511719 3.125 16.484375 3.1875 16.484375 L 4.917969 15.332031 L 4.917969 17.128906 Z M 1.378906 14.164062 L 4.523438 14.164062 C 4.699219 14.164062 4.832031 14.25 4.886719 14.394531 L 2.980469 15.664062 L 1.027344 14.363281 C 1.089844 14.238281 1.214844 14.164062 1.378906 14.164062 Z M 4.523438 22.820312 L 1.378906 22.820312 C 1.140625 22.820312 0.984375 22.664062 0.984375 22.425781 L 0.984375 20.800781 L 2.714844 21.953125 C 2.746094 21.96875 2.78125 21.988281 2.8125 22 C 2.835938 22.011719 2.863281 22.019531 2.886719 22.023438 C 2.890625 22.023438 2.890625 22.027344 2.894531 22.027344 C 2.902344 22.027344 2.90625 22.027344 2.914062 22.03125 C 2.925781 22.03125 2.9375 22.03125 2.949219 22.03125 C 2.964844 22.03125 2.976562 22.03125 2.992188 22.03125 C 2.992188 22.027344 2.996094 22.027344 3 22.027344 C 3.0625 22.019531 3.125 21.992188 3.1875 21.992188 L 4.917969 20.839844 L 4.917969 22.425781 C 4.917969 22.664062 4.761719 22.820312 4.523438 22.820312 Z M 4.917969 19.882812 L 2.980469 21.171875 L 0.984375 19.84375 L 0.984375 18.046875 L 2.714844 19.199219 C 2.746094 19.214844 2.78125 19.230469 2.8125 19.246094 C 2.835938 19.257812 2.863281 19.265625 2.886719 19.269531 C 2.890625 19.269531 2.890625 19.273438 2.894531 19.273438 C 2.902344 19.273438 2.90625 19.273438 2.914062 19.277344 C 2.925781 19.277344 2.9375 19.277344 2.949219 19.277344 C 2.964844 19.277344 2.976562 19.277344 2.992188 19.277344 C 2.992188 19.273438 2.996094 19.273438 3 19.273438 C 3.0625 19.265625 3.125 19.238281 3.1875 19.238281 L 4.917969 18.085938 Z M 5.703125 18.886719 L 5.703125 18.097656 L 7.277344 18.097656 L 7.277344 18.886719 Z M 15.894531 21.167969 L 15.03125 22.9375 C 14.949219 23.09375 14.753906 23.214844 14.558594 23.214844 L 9.402344 23.214844 C 9.207031 23.214844 9.011719 23.132812 8.929688 22.9375 L 8.066406 21.167969 L 8.066406 12.550781 C 8.066406 12.15625 7.75 11.804688 7.316406 11.804688 L 1.769531 11.804688 L 1.769531 10.621094 C 1.769531 9.71875 2.480469 9.050781 3.460938 9.050781 L 7.316406 9.050781 C 7.710938 9.050781 8.066406 8.734375 8.066406 8.300781 L 8.066406 1.179688 C 8.066406 0.945312 8.222656 0.785156 8.460938 0.785156 L 15.539062 0.785156 C 15.777344 0.785156 15.933594 0.945312 15.933594 1.179688 L 15.933594 8.300781 C 15.933594 8.695312 16.25 9.050781 16.683594 9.050781 L 20.539062 9.050781 C 21.519531 9.050781 22.230469 9.71875 22.230469 10.621094 L 22.230469 11.804688 L 16.644531 11.804688 C 16.25 11.804688 15.894531 12.117188 15.894531 12.550781 Z M 16.722656 18.886719 L 16.722656 18.097656 L 18.296875 18.097656 L 18.296875 18.886719 Z M 22.621094 22.820312 L 19.476562 22.820312 C 19.238281 22.820312 19.082031 22.664062 19.082031 22.425781 L 19.082031 20.800781 L 20.8125 21.953125 C 20.84375 21.96875 20.878906 21.988281 20.910156 22 C 20.933594 22.011719 20.960938 22.019531 20.984375 22.023438 C 20.988281 22.023438 20.992188 22.027344 20.992188 22.027344 C 21 22.027344 21.007812 22.027344 21.011719 22.03125 C 21.023438 22.03125 21.039062 22.03125 21.050781 22.03125 C 21.0625 22.03125 21.074219 22.03125 21.089844 22.03125 C 21.089844 22.027344 21.09375 22.027344 21.097656 22.027344 C 21.160156 22.019531 21.222656 21.992188 21.285156 21.992188 L 23.015625 20.839844 L 23.015625 22.425781 C 23.015625 22.664062 22.859375 22.820312 22.621094 22.820312 Z M 22.621094 22.820312"/>
    <path d="M12.785156 14.164062L11.214844 14.164062C10.976562 14.164062 10.820312 14.320312 10.820312 14.558594 10.820312 14.792969 10.976562 14.949219 11.214844 14.949219L12.785156 14.949219C13.023438 14.949219 13.179688 14.792969 13.179688 14.558594 13.179688 14.320312 13.023438 14.164062 12.785156 14.164062zM10.03125 16.132812C10.03125 16.367188 10.191406 16.523438 10.425781 16.523438L13.574219 16.523438C13.808594 16.523438 13.96875 16.367188 13.96875 16.132812 13.96875 15.894531 13.808594 15.738281 13.574219 15.738281L10.425781 15.738281C10.191406 15.738281 10.03125 15.894531 10.03125 16.132812zM12.785156 20.460938L11.214844 20.460938C10.976562 20.460938 10.820312 20.617188 10.820312 20.851562 10.820312 21.089844 10.976562 21.246094 11.214844 21.246094L12.785156 21.246094C13.023438 21.246094 13.179688 21.089844 13.179688 20.851562 13.179688 20.617188 13.023438 20.460938 12.785156 20.460938zM13.574219 18.886719L10.425781 18.886719C10.191406 18.886719 10.03125 19.042969 10.03125 19.277344 10.03125 19.515625 10.191406 19.671875 10.425781 19.671875L13.574219 19.671875C13.808594 19.671875 13.96875 19.515625 13.96875 19.277344 13.96875 19.042969 13.808594 18.886719 13.574219 18.886719zM14.359375 17.3125L9.640625 17.3125C9.402344 17.3125 9.246094 17.46875 9.246094 17.703125 9.246094 17.941406 9.402344 18.097656 9.640625 18.097656L14.359375 18.097656C14.597656 18.097656 14.753906 17.941406 14.753906 17.703125 14.753906 17.46875 14.597656 17.3125 14.359375 17.3125zM10.820312 10.621094C10.820312 9.953125 10.308594 9.441406 9.640625 9.441406 8.96875 9.441406 8.460938 9.953125 8.460938 10.621094 8.460938 11.292969 8.96875 11.804688 9.640625 11.804688 10.308594 11.804688 10.820312 11.292969 10.820312 10.621094zM9.246094 10.621094C9.246094 10.386719 9.402344 10.230469 9.640625 10.230469 9.875 10.230469 10.03125 10.386719 10.03125 10.621094 10.03125 10.859375 9.875 11.015625 9.640625 11.015625 9.402344 11.015625 9.246094 10.859375 9.246094 10.621094zM14.359375 9.441406C13.691406 9.441406 13.179688 9.953125 13.179688 10.621094 13.179688 11.292969 13.691406 11.804688 14.359375 11.804688 15.03125 11.804688 15.539062 11.292969 15.539062 10.621094 15.539062 9.953125 15.03125 9.441406 14.359375 9.441406zM14.359375 11.015625C14.125 11.015625 13.96875 10.859375 13.96875 10.621094 13.96875 10.386719 14.125 10.230469 14.359375 10.230469 14.597656 10.230469 14.753906 10.386719 14.753906 10.621094 14.753906 10.859375 14.597656 11.015625 14.359375 11.015625zM9.640625 8.261719L14.359375 8.261719C14.597656 8.261719 14.753906 8.105469 14.753906 7.867188L14.753906 2.359375C14.753906 2.125 14.597656 1.96875 14.359375 1.96875L9.640625 1.96875C9.402344 1.96875 9.246094 2.125 9.246094 2.359375L9.246094 7.867188C9.246094 8.105469 9.402344 8.261719 9.640625 8.261719zM10.03125 2.753906L13.96875 2.753906 13.96875 7.476562 10.03125 7.476562zM10.03125 2.753906"/>
</svg>

<svg xmlns="http://www.w3.org/2000/svg" width="32" height="32" viewBox="0 0 24 24">
    <path d="M23.805 17.2v-2.47a.412.412 0 0 0-.008-.304 1.158 1.158 0 0 0-1.176-1.047h-3.144c-.606 0-1.082.418-1.168.992a.4.4 0 0 0-.012.32v2.465a.368.368 0 0 0-.027.157h-1.547V12.59h6.293V10.62c0-1.168-.813-2.098-1.965-2.312v-3.98a.375.375 0 0 0-.395-.395V1.969a.412.412 0 0 0-.195-.356L18.887.828a.347.347 0 0 0-.395 0 .466.466 0 0 0-.195.352v2.754c-.238 0-.395.156-.395.394v3.934h-1.18V1.18A1.16 1.16 0 0 0 15.54 0H8.461a1.16 1.16 0 0 0-1.184 1.18v7.082h-1.18V4.328c0-.234-.156-.394-.394-.394V1.18a.582.582 0 0 0-.156-.352c-.117-.043-.274-.082-.395 0l-1.57.785c-.16.078-.238.196-.238.356v1.965c-.235 0-.395.156-.395.394v3.98C1.797 8.524.984 9.454.984 10.622v1.969h6.293v4.723H5.73a.37.37 0 0 0-.027-.114V14.73a.393.393 0 0 0-.004-.304 1.158 1.158 0 0 0-1.176-1.047H1.38c-.606 0-1.082.418-1.168.992a.4.4 0 0 0-.016.32v2.465a.41.41 0 0 0 0 .29v2.468a.399.399 0 0 0 0 .285v2.227c0 .668.512 1.18 1.184 1.18h3.144c.672 0 1.18-.512 1.18-1.18v-2.188a.361.361 0 0 0 0-.285v-.281h1.574v1.652l.985 1.93c.238.473.668.746 1.18.746h5.117c.511 0 .984-.273 1.18-.746l.984-1.93v-1.652h1.574v.242a.362.362 0 0 0 0 .285v2.227c0 .668.508 1.18 1.18 1.18h3.144a1.16 1.16 0 0 0 1.184-1.18v-2.188a.399.399 0 0 0 0-.285v-2.469a.399.399 0 0 0 0-.285zm-2.727 3.972l-1.996-1.328v-1.797l1.73 1.152c.032.016.067.031.098.047.024.012.05.02.074.024.004 0 .008.003.008.003.008 0 .016 0 .02.004h.078c0-.004.004-.004.008-.004.062-.007.125-.035.187-.035l1.73-1.152v1.797zm-.265-4.727c.03.016.066.032.097.047.024.012.05.02.074.024.004 0 .008.004.008.004.008 0 .016 0 .02.003h.039c.012 0 .023 0 .039-.003h.008c.062-.008.125-.036.187-.036l1.73-1.152v1.797l-1.937 1.289-1.996-1.328v-1.797zm-1.336-2.28h3.144c.176 0 .309.085.367.23l-1.91 1.27-1.953-1.302c.063-.125.188-.199.352-.199zm-.395-12.356l.785.394v1.73h-.785zm-.395 2.914h1.575v3.539h-1.575zm-14.949 0h1.575v3.539H3.737zm.395-2.52l.785-.394v2.125h-.785zM2.98 18.418L.984 17.09v-1.797l1.73 1.152.099.047c.023.012.05.02.074.024.004 0 .004.004.008.004.007 0 .011 0 .02.003h.034c.016 0 .028 0 .043-.003H3c.063-.008.125-.036.188-.036l1.73-1.152v1.797zM1.38 14.164h3.144c.176 0 .309.086.364.23l-1.907 1.27-1.953-1.3c.063-.126.188-.2.352-.2zm3.144 8.656H1.38c-.238 0-.395-.156-.395-.394V20.8l1.73 1.152c.032.016.067.035.099.047.023.012.05.02.074.023.004 0 .004.004.008.004.007 0 .011 0 .02.004h.077c0-.004.004-.004.008-.004.063-.007.125-.035.188-.035l1.73-1.152v1.586c0 .238-.156.394-.395.394zm.395-2.937L2.98 21.172.984 19.844v-1.797l1.73 1.152.099.047c.023.012.05.02.074.024.004 0 .004.003.008.003.007 0 .011 0 .02.004h.077c0-.004.004-.004.008-.004.063-.007.125-.035.188-.035l1.73-1.152zm.785-.996v-.79h1.574v.79zm10.192 2.281l-.864 1.77a.557.557 0 0 1-.472.277H9.402c-.195 0-.39-.082-.472-.277l-.864-1.77v-8.617a.747.747 0 0 0-.75-.746H1.77V10.62c0-.902.71-1.57 1.69-1.57h3.856a.75.75 0 0 0 .75-.75V1.18c0-.235.157-.395.395-.395h7.078c.238 0 .395.16.395.395V8.3c0 .395.316.75.75.75h3.855c.98 0 1.691.669 1.691 1.571v1.184h-5.585a.747.747 0 0 0-.75.746zm.828-2.281v-.79h1.574v.79zm5.898 3.933h-3.144c-.239 0-.395-.156-.395-.394V20.8l1.73 1.152c.032.016.067.035.098.047.024.012.05.02.074.023.004 0 .008.004.008.004.008 0 .016 0 .02.004h.078c0-.004.004-.004.008-.004.062-.007.125-.035.187-.035l1.73-1.152v1.586c0 .238-.156.394-.394.394zm0 0"/>
    <path d="M12.785 14.164h-1.57c-.238 0-.395.156-.395.395 0 .234.157.39.395.39h1.57c.238 0 .395-.156.395-.39 0-.239-.157-.395-.395-.395zm0 0M10.031 16.133c0 .234.16.39.395.39h3.148c.235 0 .395-.156.395-.39 0-.238-.16-.395-.395-.395h-3.148c-.235 0-.395.157-.395.395zm0 0M12.785 20.46h-1.57c-.238 0-.395.157-.395.392 0 .238.157.394.395.394h1.57c.238 0 .395-.156.395-.394 0-.235-.157-.391-.395-.391zm0 0M13.574 18.887h-3.148c-.235 0-.395.156-.395.39 0 .239.16.395.395.395h3.148c.235 0 .395-.156.395-.395 0-.234-.16-.39-.395-.39zm0 0M14.36 17.313H9.64c-.238 0-.394.156-.394.39 0 .238.156.395.395.395h4.718c.239 0 .395-.157.395-.395 0-.234-.156-.39-.395-.39zm0 0M10.82 10.621a1.16 1.16 0 0 0-1.18-1.18c-.671 0-1.18.512-1.18 1.18 0 .672.509 1.184 1.18 1.184a1.16 1.16 0 0 0 1.18-1.184zm-1.574 0c0-.234.156-.39.395-.39.234 0 .39.156.39.39 0 .238-.156.395-.39.395-.239 0-.395-.157-.395-.395zm0 0M14.36 9.441a1.16 1.16 0 0 0-1.18 1.18 1.16 1.16 0 0 0 1.18 1.184c.671 0 1.18-.512 1.18-1.184 0-.668-.509-1.18-1.18-1.18zm0 1.575c-.235 0-.391-.157-.391-.395 0-.234.156-.39.39-.39.239 0 .395.156.395.39 0 .238-.156.395-.395.395zm0 0M9.64 8.262h4.72c.238 0 .394-.157.394-.395V2.36c0-.234-.156-.39-.395-.39H9.641c-.239 0-.395.156-.395.39v5.508c0 .238.156.395.395.395zm.391-5.508h3.938v4.723H10.03zm0 0"/>
</svg>
